coreui/free/cil-camera-control.svg

<svg xmlns="http://www.w3.org/2000/svg" viewBox="0 0 512 512">
  <path fill="var(--ci-primary-color, currentColor)" d="M336,256a80,80,0,1,0-80,80A80.091,80.091,0,0,0,336,256Zm-128,0a48,48,0,1,1,48,48A48.055,48.055,0,0,1,208,256Z" class="ci-primary"/>
  <path fill="var(--ci-primary-color, currentColor)" d="M160,397.988,245.307,496h21.386L352,397.988V368H160ZM307.825,400,256,459.544,204.175,400Z" class="ci-primary"/>
  <path fill="var(--ci-primary-color, currentColor)" d="M245.307,16,160,114.012V144H352V114.012L266.693,16Zm-41.132,96L256,52.456,307.825,112Z" class="ci-primary"/>
  <path fill="var(--ci-primary-color, currentColor)" d="M16,245.307v21.386L114.013,352H144V160H114.013Zm96,62.519L52.455,256,112,204.174Z" class="ci-primary"/>
  <path fill="var(--ci-primary-color, currentColor)" d="M397.987,160H368V352h29.987L496,266.693V245.307ZM400,307.826V204.174L459.545,256Z" class="ci-primary"/>
</svg>

<svg viewBox="0 0 512 512" xmlns="http://www.w3.org/2000/svg"><g><path d="M336 256v0c0-44.19-35.82-80-80-80 -44.19 0-80 35.81-80 80 0 44.18 35.81 80 80 80h0c44.16-.06 79.94-35.84 80-80Zm-128 0v0c0-26.51 21.49-48 48-48 26.5 0 48 21.49 48 48 0 26.5-21.5 48-48 48h-.001c-26.5-.04-47.97-21.51-48-48Z"/><path d="M160 397.98l85.3 98.01h21.38l85.3-98.02v-29.99h-192Zm147.825 2.01l-51.83 59.54 -51.83-59.55Z"/><path d="M245.3 16l-85.31 98.012V144h192v-29.988L266.68 16Zm-41.14 96l51.82-59.55 51.82 59.54Z"/><path d="M16 245.3v21.38l98.013 85.3h29.98v-192h-29.99Zm96 62.51l-59.545-51.83L112 204.15Z"/><path d="M397.98 160h-29.99v192h29.98l98.01-85.31V245.3Zm2.01 147.82V204.16l59.54 51.82Z"/></g></svg>
